X: 20942
Q: "Moderato"
M: 2/4
L: 1/8
K: D
de |\
{de}f2A2 A2d>c | {c}B>AB>d {f}e2de |\
f2A2 (gfed) | B3c d2 :|\
d>ef>g (a3f) | (ba).g.f (f2e)A |
d>ef>g a>ba>g | (f4 a2)A2 |\
d>ef>g (afd'c') | ({c'}ba{a}gf) He2de |\
f2A2 ({a}gf{f}ed) | B3c d2 |]


